actions/22x22-light/kdenlive-select-images.svg

<svg viewBox="0 0 22 22" xmlns="http://www.w3.org/2000/svg"><path d="m3.88867 3c-.49244 0-.88867.35758-.88867.80078v14.39844c0 .44319.39623.80078.88867.80078h14.22266c.49244 0 .88867-.35759.88867-.80078v-14.39844c0-.4432-.39623-.80078-.88867-.80078zm1.32422 2h11.57422c.33635 0 .60937.27276.60937.60937v10.78125c0 .33632-.27278.60938-.60937.60938h-11.57422c-.33634 0-.60937-.27276-.60937-.60938v-10.78125c0-.33631.27279-.60937.60937-.60937zm7.66211 2.15429c-.77185 0-1.39648.62625-1.39648 1.39844 0 .77218.62463 1.39844 1.39648 1.39844.77162 0 1.39844-.62626 1.39844-1.39844 0-.77219-.62682-1.39844-1.39844-1.39844zm-3.81055 2.85157c-.13383.0124-.25883.10498-.3457.27734l-2.39844 4.75391c-.17398.34472-.003.625.38282.625h4.29687 4.49609c.38597 0 .51962-.25748.29883-.57422l-1.52734-2.1836c-.22126-.31631-.62148-.35097-.89258-.0762l-.58984.59961c-.27134.27474-.68148.24812-.91602-.0586l-2.41211-3.1543c-.11726-.15334-.25874-.22143-.39258-.20898z" fill="#4d4d4d"/></svg>

<svg xmlns="http://www.w3.org/2000/svg" viewBox="0 0 22 22">
  <defs id="defs3051">
    <style type="text/css" id="current-color-scheme">
      .ColorScheme-Text {
        color:#4d4d4d
      }
      </style>
  </defs>
 <path 
     style="fill:currentColor;fill-opacity:1;stroke:none"      
	 class="ColorScheme-Text"
        d="M 3.88867,3 C 3.39623,3 3,3.35758 3,3.80078 L 3,18.19922 C 3,18.64241 3.39623,19 3.88867,19 l 14.22266,0 C 18.60377,19 19,18.64241 19,18.19922 L 19,3.80078 C 19,3.35758 18.60377,3 18.11133,3 L 3.88867,3 Z m 1.32422,2 11.57422,0 c 0.33635,0 0.60937,0.27276 0.60937,0.60937 l 0,10.78125 C 17.39648,16.72694 17.1237,17 16.78711,17 L 5.21289,17 C 4.87655,17 4.60352,16.72724 4.60352,16.39062 l 0,-10.78125 C 4.60352,5.27306 4.87631,5 5.21289,5 Z M 12.875,7.15429 c -0.77185,0 -1.39648,0.62625 -1.39648,1.39844 0,0.77218 0.62463,1.39844 1.39648,1.39844 0.77162,0 1.39844,-0.62626 1.39844,-1.39844 0,-0.77219 -0.62682,-1.39844 -1.39844,-1.39844 z m -3.81055,2.85157 c -0.13383,0.0124 -0.25883,0.10498 -0.3457,0.27734 l -2.39844,4.75391 c -0.17398,0.34472 -0.003,0.625 0.38282,0.625 l 4.29687,0 4.49609,0 c 0.38597,0 0.51962,-0.25748 0.29883,-0.57422 l -1.52734,-2.1836 C 14.04632,12.58798 13.6461,12.55332 13.375,12.82809 l -0.58984,0.59961 c -0.27134,0.27474 -0.68148,0.24812 -0.91602,-0.0586 L 9.45703,10.2148 C 9.33977,10.06146 9.19829,9.99337 9.06445,10.00582 Z"
     />
</svg>
